svg/fluentui-system-icons/ic_fluent_contract_down_left_32_filled.svg

<svg width="32" height="32" viewBox="0 0 32 32" fill="none" xmlns="http://www.w3.org/2000/svg">
<path d="M21.4142 12L28.7071 4.70711C29.0976 4.31658 29.0976 3.68342 28.7071 3.29289C28.3166 2.90237 27.6834 2.90237 27.2929 3.29289L19.9997 10.5861V4C19.9997 3.44771 19.552 3 18.9997 3C18.4474 3 17.9997 3.44771 17.9997 4V13C17.9997 13.5523 18.4474 14 18.9997 14H28C28.5523 14 29 13.5523 29 13C29 12.4477 28.5523 12 28 12H21.4142ZM7.5 5C6.11929 5 5 6.11929 5 7.5V16.0002H12.2308C14.3125 16.0002 16 17.6878 16 19.7694V27H24.5C25.8807 27 27 25.8807 27 24.5V19C27 18.4477 27.4477 18 28 18C28.5523 18 29 18.4477 29 19V24.5C29 26.9853 26.9853 29 24.5 29H7.5C5.01472 29 3 26.9853 3 24.5V7.5C3 5.01472 5.01472 3 7.5 3H13C13.5523 3 14 3.44772 14 4C14 4.55228 13.5523 5 13 5H7.5Z" fill="#212121"/>
</svg>

<svg xmlns="http://www.w3.org/2000/svg" width="32" height="32"><path d="m21.414 12 7.293-7.293a1 1 0 0 0-1.414-1.414L20 10.586V4a1 1 0 1 0-2 0v9a1 1 0 0 0 1 1h9a1 1 0 1 0 0-2h-6.586ZM7.5 5A2.5 2.5 0 0 0 5 7.5V16h7.23A3.77 3.77 0 0 1 16 19.77V27h8.5a2.5 2.5 0 0 0 2.5-2.5V19a1 1 0 1 1 2 0v5.5a4.5 4.5 0 0 1-4.5 4.5h-17A4.5 4.5 0 0 1 3 24.5v-17A4.5 4.5 0 0 1 7.5 3H13a1 1 0 1 1 0 2H7.5Z"/></svg>
